assets/git-icon.svg

<svg width="78" height="78" viewBox="0 0 78 78" fill="none" xmlns="http://www.w3.org/2000/svg">
<g clip-path="url(#clip0_716_29)">
<path d="M76.5271 35.5277L42.4723 1.47429C40.512 -0.487385 37.3312 -0.487385 35.3682 1.47429L28.2973 8.54649L37.2675 17.5167C39.3522 16.8128 41.7429 17.2852 43.404 18.9467C45.0752 20.6186 45.5437 23.0298 44.8215 25.1221L53.4675 33.767C55.5597 33.0458 57.9719 33.512 59.6431 35.1855C61.9774 37.5191 61.9774 41.3022 59.6431 43.6377C57.3071 45.9734 53.5249 45.9734 51.1878 43.6377C49.4322 41.8804 48.9977 39.3004 49.8881 37.1371L41.8241 29.0738V50.2922C42.3927 50.574 42.9299 50.9494 43.404 51.4222C45.7384 53.7563 45.7384 57.5389 43.404 59.8765C41.0697 62.2098 37.2847 62.2098 34.9521 59.8765C32.6178 57.5389 32.6178 53.7563 34.9521 51.4222C35.5291 50.8459 36.1972 50.41 36.9101 50.1181V28.7035C36.1972 28.4117 35.5307 27.9793 34.9521 27.3991C33.1842 25.6317 32.7587 23.0365 33.6655 20.8649L24.8224 12.0205L1.47096 35.3699C-0.490321 37.3331 -0.490321 40.514 1.47096 42.4756L35.5274 76.529C37.488 78.4903 40.6679 78.4903 42.6314 76.529L76.5271 42.6334C78.4894 40.6715 78.4894 37.489 76.5271 35.5277" fill="white"/>
</g>
<defs>
<clipPath id="clip0_716_29">
<rect width="78" height="78" fill="white"/>
</clipPath>
</defs>
</svg>

<svg xmlns="http://www.w3.org/2000/svg" width="78" height="78" fill="none" xmlns:v="https://vecta.io/nano"><g clip-path="url(#A)"><path d="M76.527 35.528L42.472 1.474c-1.96-1.962-5.141-1.962-7.104 0l-7.071 7.072 8.97 8.97c2.085-.704 4.475-.232 6.137 1.43 1.671 1.672 2.14 4.083 1.417 6.175l8.646 8.645c2.092-.721 4.504-.255 6.176 1.418 2.334 2.334 2.334 6.117 0 8.452a5.98 5.98 0 0 1-9.755-6.501l-8.064-8.063v21.218a6.02 6.02 0 0 1 1.58 1.13 5.98 5.98 0 0 1 0 8.454 5.98 5.98 0 0 1-8.452 0 5.98 5.98 0 0 1 0-8.454 5.97 5.97 0 0 1 1.958-1.304V28.704c-.713-.292-1.379-.724-1.958-1.304-1.768-1.767-2.193-4.363-1.287-6.534l-8.843-8.844L1.471 35.37c-1.961 1.963-1.961 5.144 0 7.106l34.056 34.053c1.961 1.961 5.141 1.961 7.104 0l33.896-33.896c1.962-1.962 1.962-5.144 0-7.106" fill="#fff"/></g><defs><clipPath id="A"><path fill="#fff" d="M0 0h78v78H0z"/></clipPath></defs></svg>
